frontend/public/svg/interface/bulb.svg

<svg width="116" height="160" viewBox="0 0 116 160" fill="none" xmlns="http://www.w3.org/2000/svg">
<g clip-path="url(#clip0)">
<path d="M100.403 93.9723C108.026 84.5791 112.923 73.2919 114.57 61.329C117.808 37.543 108.046 18.7158 87.0831 8.31582C80.6111 5.10476 73.5628 3.37841 66.8993 1.88638C49.8317 -1.93541 34.2043 1.0261 20.448 10.6853C9.25384 18.5468 3.10338 28.1492 1.64562 40.0425C0.546596 49.1026 1.14208 58.2869 3.40198 67.1313C7.96277 85.1859 16.123 99.3758 28.3483 110.51C28.6528 110.788 28.9613 111.064 29.2704 111.34C30.6314 112.484 31.8855 113.749 33.0175 115.118C34.0539 116.46 35.2477 118.193 35.2764 119.685C35.3816 125.287 35.0538 130.807 34.6839 135.935C34.4546 139.109 34.0874 142.334 33.7319 145.453C33.5143 147.359 33.2973 149.265 33.1085 151.177C32.6877 155.421 34.1417 157.544 38.1268 158.505C40.4909 159.09 42.9164 159.393 45.3523 159.409H45.5762C53.6471 159.341 61.8461 159.157 69.7802 158.978L75.0728 158.861C80.2099 158.749 82.2799 156.887 82.7105 151.99C83.4645 143.414 83.8265 136.828 83.882 130.636L83.8899 129.974C83.9343 126.301 83.984 122.157 80.7679 118.614L86.7525 111.103C91.3146 105.375 95.8649 99.6653 100.403 93.9723ZM75.1669 117.569L66.2054 116.895C66.193 116.822 66.191 116.749 66.1988 116.676C67.5194 111.62 68.8536 106.569 70.201 101.522C73.1982 90.2311 76.2966 78.5563 79.1102 67.0129C81.2815 58.1071 81.3507 50.2149 79.3199 42.8867C78.3209 39.2809 76.4234 36.6176 73.8313 35.1848C72.5826 34.5334 71.2151 34.1405 69.8102 34.03C68.4054 33.9196 66.9921 34.0937 65.6568 34.542C64.5923 34.8947 63.5669 35.3552 62.5968 35.9159L62.1983 36.1277C61.571 36.46 60.9889 36.8433 60.3727 37.2446L60.0335 37.4657C59.8643 37.2536 59.6989 37.0421 59.5342 36.832C58.9319 36.0345 58.2889 35.2682 57.6075 34.5363C53.9856 30.7698 48.774 30.403 44.636 33.6258C41.8354 35.8836 39.7128 38.8648 38.5004 42.243C34.2336 53.1406 33.9168 64.5031 37.5589 76.0139C39.4649 82.038 41.4839 88.1349 43.4395 94.0302C44.1766 96.2545 44.9119 98.4796 45.6455 100.705C47.2413 105.698 48.1749 110.876 48.4225 116.11H41.5865C41.2056 111.198 37.9273 107.868 34.7576 104.642C34.1696 104.046 33.5816 103.448 33.0112 102.839C19.9208 88.8971 12.7372 73.9651 11.0514 57.19C10.4706 51.4131 10.0406 45.262 10.8201 39.4213C11.9963 30.6083 17.0477 23.2264 26.2621 16.8524C37.485 9.08915 49.9659 6.58183 63.351 9.40004C70.4081 10.8849 77.2643 12.4843 83.5723 15.6992C99.903 24.0244 107.371 38.5122 105.166 57.5971C103.646 70.7567 97.5605 82.3599 85.4326 95.221C82.2485 98.5999 78.692 102.745 76.4587 107.873C75.2989 110.536 74.1698 113.679 75.1669 117.569ZM75.5746 133.886L75.2009 139.631H41.4095V132.867L75.5746 133.886ZM74.5285 146.977L74.3331 151.391C64.2234 151.838 52.5683 152.215 41.0617 151.341C41.0389 151.184 41.0155 151.036 40.9966 150.896C40.9136 150.484 40.8711 150.065 40.8703 149.645C40.9154 148.666 41.0109 147.682 41.1109 146.64C41.1344 146.4 41.1576 146.156 41.1807 145.909L74.5285 146.977ZM40.8227 121.832L41.7866 121.86C53.4133 122.2 64.4049 122.521 75.6445 123.687L75.8079 126.452C64.2955 127.086 52.7562 127.059 41.2474 126.368L40.8227 121.832ZM49.5229 92.2123C49.0994 90.8731 48.6734 89.5339 48.2703 88.1908C46.0748 80.9134 43.9636 73.7739 42.2674 66.4386C40.6907 59.625 41.6141 52.4138 45.1634 43.7446C45.9469 42.0089 47.0673 40.4448 48.4604 39.1418C48.7186 38.8346 49.039 38.5847 49.4007 38.4089C49.7623 38.233 50.1569 38.135 50.5591 38.1212C51.321 38.1563 52.1108 38.6553 52.906 39.6036C54.9571 42.0498 55.0012 42.6681 53.3291 45.6151C49.9274 51.6119 48.5419 57.3726 49.094 63.2256C49.2234 65.0669 49.6552 66.8737 50.3722 68.5759C50.6604 69.4331 51.1794 70.1954 51.8726 70.7794C52.5658 71.3635 53.4068 71.7472 54.3038 71.889C55.2007 72.0308 56.1195 71.9248 56.9602 71.5827C57.8008 71.2406 58.531 70.6754 59.0716 69.9489C60.2834 68.5407 61.2333 66.9284 61.8767 65.1885C64.3123 59.0183 64.7819 52.2516 63.2214 45.8066C62.7294 43.6954 64.2292 41.9221 67.3384 40.9406C68.6008 40.5419 69.5926 40.5414 70.2846 40.9362C70.6433 41.1861 70.9459 41.5077 71.1726 41.8804C71.4 42.253 71.5463 42.6687 71.6025 43.1008C72.3866 46.5382 73.3569 50.816 72.8675 54.6586C72.0181 61.3038 70.5721 68.0015 69.1719 74.4783C68.9105 75.6965 68.6498 76.9141 68.3884 78.131C67.5494 82.0692 66.6327 86.0627 65.7458 89.9241C64.5559 95.1105 63.3281 100.474 62.263 105.782C61.813 108.387 61.562 111.02 61.5123 113.662C61.464 114.722 61.4148 115.808 61.3417 116.922L53.3766 116.434C54.4606 107.823 51.9528 99.8897 49.5247 92.2123H49.5229ZM56.2732 58.6877L56.7346 55.8619C56.7328 56.8222 56.5777 57.7759 56.2752 58.6877H56.2732Z" fill="black"/>
</g>
<defs>
<clipPath id="clip0">
<rect width="115" height="160" fill="white" transform="translate(0.777344)"/>
</clipPath>
</defs>
</svg>

<svg xmlns="http://www.w3.org/2000/svg" width="116" height="160" fill="none" viewBox="0 0 116 160"><g clip-path="url(#a)"><path fill="#000" d="M100.403 93.972A66.1 66.1 0 0 0 114.57 61.33c3.238-23.786-6.524-42.613-27.487-53.013-6.472-3.211-13.52-4.938-20.184-6.43-17.067-3.821-32.695-.86-46.451 8.8C9.254 18.545 3.103 28.148 1.646 40.041a73.6 73.6 0 0 0 1.756 27.09c4.56 18.054 12.721 32.244 24.946 43.378q.458.416.922.83a29.5 29.5 0 0 1 3.747 3.778c1.037 1.342 2.23 3.075 2.26 4.567.105 5.602-.223 11.122-.593 16.25-.23 3.174-.597 6.399-.952 9.518a377 377 0 0 0-.623 5.724c-.421 4.244 1.033 6.367 5.018 7.328 2.364.585 4.79.888 7.225.904h.224c8.071-.068 16.27-.252 24.204-.431l5.293-.117c5.137-.112 7.207-1.974 7.638-6.871.754-8.576 1.115-15.162 1.171-21.354l.008-.662c.044-3.673.094-7.817-3.122-11.36l5.984-7.511q6.844-8.592 13.651-17.13M75.167 117.57l-8.962-.674a.8.8 0 0 1-.006-.219q1.98-7.584 4.002-15.154c2.997-11.29 6.096-22.966 8.91-34.51 2.17-8.905 2.24-16.797.209-24.125-1-3.606-2.897-6.27-5.489-7.702a10.47 10.47 0 0 0-8.174-.643c-1.065.353-2.09.813-3.06 1.374l-.399.212c-.627.332-1.21.715-1.825 1.117l-.34.22q-.253-.317-.499-.633a29 29 0 0 0-1.926-2.296c-3.622-3.766-8.834-4.133-12.972-.91a19.56 19.56 0 0 0-6.136 8.617c-4.266 10.898-4.583 22.26-.941 33.77 1.906 6.025 3.925 12.122 5.88 18.017q1.107 3.337 2.206 6.675a60 60 0 0 1 2.777 15.405h-6.835c-.381-4.912-3.66-8.242-6.83-11.468a97 97 0 0 1-1.746-1.803c-13.09-13.942-20.274-28.874-21.96-45.649-.58-5.777-1.01-11.928-.23-17.769 1.175-8.813 6.227-16.195 15.441-22.569C37.485 9.09 49.966 6.582 63.351 9.4c7.057 1.485 13.913 3.084 20.221 6.3 16.331 8.324 23.799 22.812 21.594 41.897-1.52 13.16-7.605 24.763-19.733 37.624-3.184 3.379-6.741 7.524-8.974 12.652-1.16 2.663-2.29 5.806-1.292 9.696m.408 16.317-.374 5.745H41.41v-6.764zm-1.047 13.091-.195 4.414c-10.11.447-21.765.824-33.271-.05q-.036-.235-.065-.445a6.4 6.4 0 0 1-.127-1.251c.045-.979.14-1.963.24-3.005q.037-.36.07-.731zm-33.705-25.145.964.028c11.626.34 22.618.661 33.857 1.827l.164 2.765a301 301 0 0 1-34.56-.084zm8.7-29.62c-.424-1.339-.85-2.678-1.253-4.021-2.195-7.278-4.306-14.417-6.003-21.752-1.576-6.814-.653-14.025 2.896-22.694a14.4 14.4 0 0 1 3.297-4.603 2.86 2.86 0 0 1 2.1-1.02c.761.034 1.55.533 2.346 1.482 2.051 2.446 2.095 3.064.423 6.011-3.402 5.997-4.787 11.758-4.235 17.61.13 1.842.561 3.649 1.278 5.35a4.94 4.94 0 0 0 1.5 2.204 4.98 4.98 0 0 0 7.2-.83 15.6 15.6 0 0 0 2.805-4.76 32.16 32.16 0 0 0 1.344-19.382c-.492-2.112 1.008-3.885 4.117-4.866 1.263-.4 2.255-.4 2.947-.005a3.14 3.14 0 0 1 1.318 2.165c.784 3.437 1.754 7.715 1.265 11.558-.85 6.645-2.296 13.342-3.696 19.82l-.784 3.652c-.839 3.938-1.755 7.932-2.642 11.793-1.19 5.186-2.418 10.55-3.483 15.858a52 52 0 0 0-.75 7.88c-.049 1.06-.098 2.146-.171 3.26l-7.965-.488c1.084-8.611-1.424-16.544-3.852-24.222zm6.75-33.524.462-2.826a9 9 0 0 1-.46 2.826z"/></g><defs><clipPath id="a"><path fill="#fff" d="M.777 0h115v160h-115z"/></clipPath></defs></svg>
